X:279
T:De Rommelpot
Z:Jack Campin, http://www.campin.me.uk/
F:Jack Campin's Nine-Note Tunebook
% last edit 03-02-2013
B:Haywood, Folk Songs of the World
M:2/4
L:1/8
Q:1/4=100
K:DMin
z   |DA  AG   |AG/F/ E      \
z   |DA  AG   |AG/F/ E/z/
F/E/|D2  CF/E/|D2    C      \
z   |DE  FG   |AA    A      \
z   |B>A GA   |F2    E2 |D3|]

